SharedPackages/Infrastructure/DesignResourcesKitIcons/Sources/DesignResourcesKitIcons/DesignSystemImages.xcassets/Color/16px/Radar-Color-16.imageset/Radar-Color-16.svg

<svg width="16" height="16" viewBox="0 0 16 16" fill="none" xmlns="http://www.w3.org/2000/svg">
<g clip-path="url(#clip0_13193_106782)">
<path fill-rule="evenodd" clip-rule="evenodd" d="M8 15C11.866 15 15 11.866 15 8C15 4.13401 11.866 1 8 1C4.13401 1 1 4.13401 1 8C1 11.866 4.13401 15 8 15Z" fill="#006B4B"/>
<path fill-rule="evenodd" clip-rule="evenodd" d="M8 15C11.866 15 15 11.866 15 8C15 4.13401 11.866 1 8 1C4.13401 1 1 4.13401 1 8C1 11.866 4.13401 15 8 15Z" fill="#269B61"/>
<path opacity="0.7" d="M7.41999 0.035975C8.11719 -0.0159077 8.81819 0.0238261 9.50506 0.154161L8.01367 8.01392L7.41999 0.035975Z" fill="#81D59E"/>
<path opacity="0.8" d="M9.50506 0.15416C10.1919 0.284495 10.8588 0.504306 11.4885 0.807976L8.01367 8.01392L9.50506 0.15416Z" fill="#81D59E"/>
<path opacity="0.2" d="M15.1674 4.43251C15.4804 5.05768 15.71 5.72118 15.8505 6.40605L8.01367 8.01355L15.1674 4.43251Z" fill="#006B4B"/>
<path opacity="0.4" d="M13.9964 2.70255C14.4606 3.22539 14.8542 3.80681 15.1672 4.43197L8.01367 8.01355L13.9964 2.70255Z" fill="#006B4B"/>
<path opacity="0.9" d="M11.4885 0.807609C12.1182 1.11128 12.7054 1.49619 13.2351 1.9525L8.01367 8.01355L11.4885 0.807609Z" fill="#81D59E"/>
<path opacity="0.4" d="M1.95262 2.79221C2.40893 2.26253 2.9327 1.79495 3.51056 1.40141L8.01367 8.01367L1.95262 2.79221Z" fill="#81D59E"/>
<path opacity="0.5" d="M3.51056 1.40141C4.08841 1.00788 4.71536 0.691793 5.37538 0.461229L8.01367 8.01367L3.51056 1.40141Z" fill="#81D59E"/>
<path opacity="0.6" d="M5.37538 0.461107C6.03539 0.230543 6.72279 0.0874912 7.41999 0.0356085L8.01367 8.01355L5.37538 0.461107Z" fill="#81D59E"/>
<path opacity="0.1" d="M0.0357313 8.60735C-0.0161514 7.91015 0.0235822 7.20916 0.153917 6.52228L8.01367 8.01367L0.0357313 8.60735Z" fill="#81D59E"/>
<path opacity="0.2" d="M0.153916 6.52228C0.284251 5.83541 0.504062 5.16858 0.807731 4.53884L8.01367 8.01367L0.153916 6.52228Z" fill="#81D59E"/>
<path opacity="0.3" d="M0.807732 4.53885C1.1114 3.90911 1.49631 3.3219 1.95262 2.79221L8.01367 8.01367L0.807732 4.53885Z" fill="#81D59E"/>
<path d="M13.5034 3.20269L8.5874 8.11874C8.53201 8.39278 8.29002 8.59937 7.99965 8.59937C7.66847 8.59927 7.40005 8.33061 7.39999 7.99943C7.39999 7.70887 7.60646 7.4659 7.88076 7.41072L12.7964 2.4957L13.5034 3.20269Z" fill="white"/>
<path d="M8 0C12.4183 0 16 3.58172 16 8C16 12.4183 12.4183 16 8 16C3.58172 16 0 12.4183 0 8C4.02687e-08 3.58172 3.58172 4.02661e-08 8 0ZM8 1C4.13401 1 1 4.13401 1 8C1 11.866 4.13401 15 8 15C11.866 15 15 11.866 15 8C15 4.13401 11.866 1 8 1Z" fill="#006B4B"/>
<path d="M8.9 3.00005C8.9 3.38665 8.5866 3.70005 8.2 3.70005C7.8134 3.70005 7.5 3.38665 7.5 3.00005C7.5 2.61345 7.8134 2.30005 8.2 2.30005C8.5866 2.30005 8.9 2.61345 8.9 3.00005Z" fill="white"/>
<path opacity="0.4" d="M7.6998 13C7.6998 13.3866 7.3864 13.7 6.9998 13.7C6.61321 13.7 6.2998 13.3866 6.2998 13C6.2998 12.6134 6.61321 12.3 6.9998 12.3C7.3864 12.3 7.6998 12.6134 7.6998 13Z" fill="#81D59E"/>
<path d="M6.5001 3.79998C6.5001 4.18657 6.1867 4.49998 5.8001 4.49998C5.4135 4.49998 5.1001 4.18657 5.1001 3.79998C5.1001 3.41338 5.4135 3.09998 5.8001 3.09998C6.1867 3.09998 6.5001 3.41338 6.5001 3.79998Z" fill="white"/>
<path opacity="0.9" d="M5.2999 7.00005C5.2999 7.38665 4.9865 7.70005 4.5999 7.70005C4.2133 7.70005 3.8999 7.38665 3.8999 7.00005C3.8999 6.61345 4.2133 6.30005 4.5999 6.30005C4.9865 6.30005 5.2999 6.61345 5.2999 7.00005Z" fill="#81D59E"/>
<path opacity="0.7" d="M3.6998 8.60002C3.6998 8.98662 3.3864 9.30002 2.9998 9.30002C2.61321 9.30002 2.2998 8.98662 2.2998 8.60002C2.2998 8.21343 2.61321 7.90002 2.9998 7.90002C3.3864 7.90002 3.6998 8.21343 3.6998 8.60002Z" fill="#81D59E"/>
<path opacity="0.3" d="M5.6998 11C5.6998 11.3866 5.3864 11.7 4.9998 11.7C4.61321 11.7 4.2998 11.3866 4.2998 11C4.2998 10.6134 4.61321 10.3 4.9998 10.3C5.3864 10.3 5.6998 10.6134 5.6998 11Z" fill="#81D59E"/>
</g>
<defs>
<clipPath id="clip0_13193_106782">
<rect width="16" height="16" fill="white"/>
</clipPath>
</defs>
</svg>

<svg fill="none" viewBox="0 0 16 16" xmlns="http://www.w3.org/2000/svg">
  <g clip-path="url(#Radar-Color-16_svg__a)">
    <path fill="url(#Radar-Color-16_svg__b)" fill-rule="evenodd" d="M8 15A7 7 0 1 0 8 1a7 7 0 0 0 0 14Z" clip-rule="evenodd"/>
    <path fill="#399F29" fill-rule="evenodd" d="M8 15A7 7 0 1 0 8 1a7 7 0 0 0 0 14Z" clip-rule="evenodd"/>
    <path fill="#D3FFCC" d="M7.42.036a8 8 0 0 1 2.085.118l-1.491 7.86L7.42.036Z" opacity=".7"/>
    <path fill="#D3FFCC" d="M9.505.154a8 8 0 0 1 1.983.654L8.014 8.014 9.505.154Z" opacity=".8"/>
    <path fill="#288419" d="M15.167 4.433c.313.625.543 1.288.684 1.973L8.014 8.014l7.153-3.581Z" opacity=".2"/>
    <path fill="#288419" d="M13.996 2.703a7.998 7.998 0 0 1 1.171 1.729L8.014 8.014l5.982-5.311Z" opacity=".4"/>
    <path fill="#D3FFCC" d="M11.489.808a7.98 7.98 0 0 1 1.746 1.144L8.014 8.014 11.489.808Z" opacity=".9"/>
    <path fill="#D3FFCC" d="M1.953 2.792a8 8 0 0 1 1.558-1.39l4.503 6.612-6.061-5.222Z" opacity=".4"/>
    <path fill="#D3FFCC" d="M3.51 1.401a8 8 0 0 1 1.865-.94l2.639 7.553L3.51 1.4Z" opacity=".5"/>
    <path fill="#D3FFCC" d="M5.375.461A8 8 0 0 1 7.42.036l.594 7.978L5.375.46Z" opacity=".6"/>
    <path fill="#D3FFCC" d="M.036 8.607a8 8 0 0 1 .118-2.085l7.86 1.492-7.978.593Z" opacity=".1"/>
    <path fill="#D3FFCC" d="M.154 6.522A8 8 0 0 1 .808 4.54l7.206 3.475-7.86-1.492Z" opacity=".2"/>
    <path fill="#D3FFCC" d="M.808 4.539a8 8 0 0 1 1.145-1.747l6.06 5.222L.809 4.539Z" opacity=".3"/>
    <path fill="#fff" d="M13.503 3.203 8.587 8.119a.6.6 0 1 1-.706-.708l4.915-4.915.707.707Z"/>
    <path fill="url(#Radar-Color-16_svg__c)" d="M8 0a8 8 0 1 1 0 16A8 8 0 0 1 8 0Zm0 1a7 7 0 1 0 0 14A7 7 0 0 0 8 1Z"/>
    <path fill="#fff" d="M8.9 3a.7.7 0 1 1-1.4 0 .7.7 0 0 1 1.4 0Z"/>
    <path fill="#D3FFCC" d="M7.7 13a.7.7 0 1 1-1.4 0 .7.7 0 0 1 1.4 0Z" opacity=".4"/>
    <path fill="#fff" d="M6.5 3.8a.7.7 0 1 1-1.4 0 .7.7 0 0 1 1.4 0Z"/>
    <path fill="#D3FFCC" d="M5.3 7a.7.7 0 1 1-1.4 0 .7.7 0 0 1 1.4 0Z" opacity=".9"/>
    <path fill="#D3FFCC" d="M3.7 8.6a.7.7 0 1 1-1.4 0 .7.7 0 0 1 1.4 0Z" opacity=".7"/>
    <path fill="#D3FFCC" d="M5.7 11a.7.7 0 1 1-1.4 0 .7.7 0 0 1 1.4 0Z" opacity=".3"/>
  </g>
  <defs>
    <linearGradient id="Radar-Color-16_svg__b" x1="8" x2="8" y1="1" y2="15" gradientUnits="userSpaceOnUse">
      <stop stop-color="#399F29"/>
      <stop offset="1" stop-color="#1A690D"/>
    </linearGradient>
    <linearGradient id="Radar-Color-16_svg__c" x1="8" x2="8" y1="0" y2="16" gradientUnits="userSpaceOnUse">
      <stop stop-color="#399F29"/>
      <stop offset="1" stop-color="#1A690D"/>
    </linearGradient>
    <clipPath id="Radar-Color-16_svg__a">
      <path fill="#fff" d="M0 0h16v16H0z"/>
    </clipPath>
  </defs>
</svg>
